X:4111
T:Devil in Dublin,The. BF13.101
M:6/8
L:1/8
Q:120
S:J.Lishman(?)MS,c1825,Lakes,Browne Coll.
R:Jig
O:England
A:Lakes
N:The second group of quavers in the 3rd bar, B music have no stem
Z:vmp.Cherri Graebe.
K:G major
G2Bd2B|e2cA3|BdB GBG|FAFD3|!G2Bd2B|e2c ABc|dBG FAF|G3"crot"G3|!
|AGA FGA|BAB GAB|cBc ABc|dcd Bcd|!ede cde|def gdB|c2A dcA|G3G3|]


